!!!COM: Lambardi, Francesco
!!!CDT:
!!!PTL: Canzonette a tre, quattro e cinque voci. Libro terzo
!!!PPP: Naples
!!!PPR: Vitale
!!!PDT: 1616
!!!PUB-format:
!!!RISM: 1616-15
!!!rime: 353
!!!OTL: Già fui caro agli occhi tuoi
!!!AGN: Madrigal
!!!SCT: Trm0353a
!!!SCA: Trm0353a
!!!original-voices: 3
!!!extant-voices: 2
!!!complete: N
!!!final: D
**kern	**text	**kern	**text
*part2	*part2	*part1	*part1
*staff2	*staff2	*staff1	*staff1
*>[A,A1,A,A2,B,B1,B,B2,C,C]	*>[A,A1,A,A2,B,B1,B,B2,C,C]	*>[A,A1,A,A2,B,B1,B,B2,C,C]	*>[A,A1,A,A2,B,B1,B,B2,C,C]
*>norep[A,A2,B,B2,C]	*>norep[A,A2,B,B2,C]	*>norep[A,A2,B,B2,C]	*>norep[A,A2,B,B2,C]
*>A	*>A	*>A	*>A
*I"Basso	*	*I"Canto	*
*I'B	*	*I'C	*
*oclefC4	*	*oclefC1	*
*clefGv2	*	*clefG2	*
*k[]	*	*k[]	*
*C:	*	*C:	*
*omet(C)	*	*omet(C)	*
*M2/2	*	*M2/2	*
=1	=1	=1	=1
4r	.	4r	.
8d	Già	8a	Già
8d	fui	8dd	fui
8A	ca-	8cc	ca-
8A	-ro a	8cc	-ro a
8B	gli oc-	8b	gli oc-
8B	-chi	8a	-chi
=2	=2	=2	=2
4.c	tuo-	8g	tuo-
.	.	8e	-i,
.	.	4.cc	O
8A	-i,	.	.
4.f	O	.	.
.	.	8dd	mio
.	.	[4a	so-
8e	mio	.	.
=3	=3	=3	=3
*>A1	*>A1	*>A1	*>A1
(>4d	so-	4a]	.
4e)	.	4g#X	.
2A	-le,	2a	-le,
=4:|!	=4:|!	=4:|!	=4:|!
*>A2	*>A2	*>A2	*>A2
(>4d	so-	<4a	.
4e)	.	4g#X	.
2A	-le,	4a	le,
.	.	8a	Vis-
.	.	8cc	-si
=5!|:	=5!|:	=5!|:	=5!|:
*>B	*>B	*>B	*>B
2r	.	8b	lie-
.	.	8g	-to
.	.	8a	del
.	.	8dd	tuo a-
4r	.	4cc	-mo-
8B	Vis-	4b	-re,
8e	-si	.	.
=6	=6	=6	=6
8c	lie-	4r	.
8A	-to	.	.
8e	del	8b	Vis-
8E	tuo a-	8ee	-si
4.A	-mo-	8cc	lie-
.	.	8a	-to
.	.	8cc	del
8B	.	8b	tuo a-
=7	=7	=7	=7
8c	.	8a	-mo-
8A	-re,	8e	-re,
4F	Del	4a	Del
2G	mio ar-	4b	mio ar-
.	.	[4cc	-do-
=8	=8	=8	=8
*>B1	*>B1	*>B1	*>B1
2G	-do-	4cc]	.
.	.	4b	.
2C	-re,	4cc	-re,
.	.	8a	Vis-
.	.	8cc	-si
=9:|!	=9:|!	=9:|!	=9:|!
*>B2	*>B2	*>B2	*>B2
2G	do-	(>4cc)	.
.	.	4b	.
2C	-re,	2cc	re,
=10!|:	=10!|:	=10!|:	=10!|:
*>C	*>C	*>C	*>C
4r	.	4r	.
8c	Hor	8g	Hor
8A	che	8a	che
4G	più	4b	più
4E	non	4cc	non
=11	=11	=11	=11
4.F	m'a-	2a	m'a-
8G	.	.	.
2A	.	2e	-mi,
=12	=12	=12	=12
2D	-mi,	8r	.
.	.	8dd	Co-
.	.	8a	-m'es-
.	.	8cc	-ser
8r	.	8b	pò
8G	Co-	8g	che
8D	-m'es-	8dd	mai,
8F	-ser	8a	che
=13	=13	=13	=13
8E	pò	8b	mai
8E	che	8g	più
8D	mai	8cc	vi-
8C	più	8b	-ver
4F	vi-	4a	bra-
4C	-ver	[4g	.
=14	=14	=14	=14
2D	bra-	4g]	.
.	.	4f#X	.
8G	-mi,	4g	-mi,
8c	co-	.	.
8F	-m'es-	4r	.
8A	-ser	.	.
=15	=15	=15	=15
8G	pò	2r	.
8F	che	.	.
8D	mai	.	.
8F	più	.	.
8E	vi-	8r	.
8D	-ver	8ee	Co-
8E	bra-	8b	-m'es-
8A	-mi,	8dd	-ser
=16	=16	=16	=16
8F#X	che	8cc#X	pò
8G	mai	8dd	che
4A	più	8b-X	mai
.	.	8a	più
4B-X	vi-	4.g	vi-
4G	-ver	.	.
.	.	8f	-ver
=17	=17	=17	=17
2A	bra-	2e	bra-
2Dl	-mi?	2dl	-mi?
=:|!	=:|!	=:|!	=:|!
*-	*-	*-	*-
!!!system-decoration: [*]
!!!RDF**kern: > = above
!!!RDF**kern: < = below
!!!RDF**kern: i = editorial accidental
!!!RDF**kern: l = terminal long
!!!ENC: Emiliano Ricciardi
!!!END: 2019
!!!EED: Schleuse, Paul
!!!EEV: 2019/02/06
!!!YEC: Copyright 2018 Emiliano Ricciardi, All Rights Reserved
!!!ONB: Translated from MusicXML on 2019/02/06 and edited by Craig Stuart Sapp
!!
!! Second verse:
!!	Tu pur vedi il dolor mio,
!!	O mia gioia,
!!	Sai ch'io t'amo, ch'io t'adoro,
!!	Ch'io mi moro,
!!	E mi sei crudele,
!!	Quest`&egrave; merc&eacute; de l'amor mio fedele?
!!
!! Third verse:
!!	Poiche godi del mio male,
!!	O mio bene,
!!	Son contento di languire,
!!	Di morire,
!!	S'io vedr&ograve;, che poi
!!	Il mio morir sia caro &agreve; gli occhi tuoi.
!!
!!@@BEGIN:	VERSEDATA
!!@SOLERTI:	353
!!@CATALOGNUM:	Trm0353
!!@LAST_MODIFIED: 2020/07/12
!!@TITLE:		Già fui caro agli occhi tuoi
!!@GENRE:		canzonetta
!!@MANUSRC:	Flc<sub>2</sub>
!!@PRINTSRC:	none
!!@@BEGIN:	VERSES
!!@ABOUTIT:
!!@ABOUTEN:
!!@EDITOR:	Solerti, Angelo
!!@EDITION_TITLE: Le Rime di Torquato Tasso
!!@EDITION_LOC:	Bologna
!!@EDITION_PUB:	Romagnoli-Dall’Acqua
!!@EDITION_DATE:  1898-1902
!!@EDITION_VOL:	2
!!@EDITION_PAGE:  392
!!@TRANSLATOR:	Maria Pastore Passaro; adapted by Emiliano Ricciardi and Amyrose McCue Gill
!!@VERSE:
!!	Già fui caro a gli occhi tuoi,
!!	O mio sole;
!!	Vissi lieto del tuo amore,
!!	Del mio ardore;
!!	Or che più non m'ami
!!	Com'esser può che mai più viver brami?
!!@VERSE:
!!	Tu pur vedi il pianto mio,
!!	O mia gioia,
!!	Sai ch'io t'amo, ch'io t'adoro,
!!	Ch'io mi moro,
!!	E mi sei crudele!
!!	Questa è mercé de l'amor mio fedele?
!!@VERSE:
!!	Ma se godi del mio male,
!!	O mio bene,
!!	Son contento di languire,
!!	Di morire,
!!	S'io vedrò che poi
!!	Il mio morir sia caro a gli occhi tuoi.
!!@TVERSE:
!!	Once I was dear to your eyes,
!!	O my sun;
!!	I lived, [a] happy [man], on your love,
!!	On my passion;
!!	Now that you no longer love me,
!!	How can it be that I ever desire to live longer?
!!@TVERSE:
!!	You see well my tears,
!!	O my joy,
!!	You know that I love you, that I adore you,
!!	That I myself die for you,
!!	And you are cruel to me!
!!	This is the thanks for my faithful love?
!!@TVERSE:
!!	But if you take pleasure in my suffering,
!!	O my dear,
!!	I am content to languish,
!!	To die,
!!	If [only] I will see that then
!!	My death be dear to your eyes.
!!@@END:		VERSES
!!@OTHER_CRIT_ED:   None
!!@ATTRIBUTION_ABOUT:	Secure
!!		<br>
!!		This poem appears in the partly autograph manuscript Tassiana N.6.5, Civica Biblioteca Angelo Mai, Bergamo. According to [Massimo Castellozzi] {footnote: Massimo Castellozzi, "Aspetti della tradizione delle <i>Rime disperse</i> di Torquato Tasso," <i>L'ellisse. Studi storici di letteratura italian</i> VIII, vol. 2 (2013): 78}, the folios 164r-172v, which include <i>Rime</i> 353, 354, 356, 358, 359, 361, and NSM1, are in Tasso's hand.
!!@DATING:	Early 1590s
!!		<br>
!!		Before being incorporated into the manscript Tassiana N.6.5, Civica Biblioteca Angelo Mai, Bergamo, this poem used to belong to the Torella codex (MA 462, Pierpont Morgan Library, New York City, NY), a manuscript assembled in Naples and containing for the most part poems and letters that Tasso wrote during his stay in the city in the early 1590s.
!!@DEDICATEE:
!!@COMMENTARY:
!!@@END:		VERSEDATA
!!@@BEGIN:	SETTING
!!@CATALOGNUM:	Trm0353a
!!@RIMETITLE:	Già fui caro agli occhi tuoi
!!@SOLERTI:	353
!!@COMPOSER:	Lambardi, Francesco
!!@PRINCEPSTITLE:	Canzonette a tre, quattro e cinque voci. Libro terzo
!!@PRINCEPSLOC:	Napoli
!!@NORMLOC:	Naples
!!@NORMPUB:	Vitale
!!@NORMPUBSHORT:	Vitale
!!@PRINCEPSPUB:	Vitale
!!@PRINCEPSYEAR:	1616
!!@PRINCEPSRISM:	1616-15
!!@REPRINTS:	
!!@OVOICES:	3
!!@EXTANTVOICES:	2
!!@PARTBOOKS:	
!!@EXTPARTBOOKS:	
!!@OCLEFS:	C1,C4
!!@OMENSURATION:	C
!!@OKEYSIG:	-
!!@FINAL:	D
!!@TIMPEDITOR:	Schleuse, Paul
!!@NOTE:		
!!@@END:		SETTING
